X: 1
T: Finlay Stewart Skinner
C: Muriel Johnstone
R: strathspey
B: Allenton Collection
Z: John Chambers <jc:trillian.mit.edu>
N:
M: C
L: 1/8
K: D
B \
|: "D"AB/c/ d>D F<A A2 | "Em"E>F G>A "A7"B>A B/c/d \
| "D"AB/c/ d>D F<A A2 | "G"Bd "A7"A>G "D"F<D D2 :|
|| "D"(3agf e>d "Em"B<e e2 | "D"(3dcB A>F "G"E<D "A"F<E \
| "D"(3agf e>d "Em"B<e e2 | "G"dG "D"F<D D2 |
| "D"ag/f/ e>d "Em"B<e e2 | "D"dc/B/ A>F "G"E<D "A"F<E \
| "D"(3DEF "G"(3GAB "A"(3ABc "Bm"(3def | "Em"gg "D"f<d d2 |]
